X:100
T:Red Lyon Hornpipe. JC.100
R:Triple Hornpipe
S:John Clare,Poet,Helpston. (1793-1864)
O:England
A:Northamptonshire
Z:vmp.P. Headford
M:3/2
L:1/8
Q:1/8=300
K:D
“_Key Sig 3/9 in MS”\
dfdf FGAFG2E2|dfdf Adced2D2|!
dfdf FGAFG2ba|fedc Adced2D2:|!
|:dfgf dfedc2A2|FAdA BABGF2D2|!
dfgf dfedc2A2|GAdF Edced4:|

